X:203
%%etbk:tnset id:66,pos:1,rep:3x,ant:
%%etbk:wsite http://www.thesession.org/tunes/display/3178
%%etbk:pldat 2015-08-19T17:21,2014-12-07T10:13,2014-10-30T19:06,2014-10-28T15:28,2014-10-25T15:24,2014-10-19T15:47,2014-10-10T15:33,2014-10-05T16:25,2014-10-03T15:35,2014-09-27T10:18,2014-09-24T17:01,2014-05-17T14:21,2014-01-22T15:43,2014-01-21T16:49,2014-01-20T18:24,2014-01-19T13:15,2014-01-18T13:53,2014-01-17T17:58,2014-01-15T15:55,2014-01-14T18:39,2014-01-12T15:09,2014-01-09T18:12,2014-01-07T15:42,2014-01-06T18:28,2014-01-03T16:09,2013-12-29T13:08,2013-12-28T13:00,2013-12-27T16:44,2013-12-22T16:39,2013-12-17T16:14,2013-12-09T18:52,2013-10-28T18:24,2013-10-17T19:14,2013-10-15T18:39,2013-10-13T16:12,2013-10-11T18:07,2013-10-07T18:15,2013-08-29T16:51,2013-05-21T16:49
T: Sailing in
Z: Piano Box Version by Martin Fleischmann
H: Created 2013-02-19 /  Last Modified 2013-02-19
M: 4/4
L: 1/8
R: reel
K: Emaj
!1!E3 !4!B !2!G!4!B !3!B!4!B | EBGB !5!c!3!A!2!F!1!D | !1!E3 B G2  BB | !3!A!2!F !2!F!2!F !1!=D!2!F!1!B,!2!F |
!1!E3 B GB BB | EBGB cAFD | E3 B G2  BB | !5!c!3!A!2!F!3!G !4!A!5!B!3!G!2!F |
!1!E3 !5!e e2 !3!B!2!A | !1!G2 !2!e!4!g !3!f!2!d!1!B!2!A | !1!G!2!B!5!e!2!B !1!G!1!G!2!e!4!g | !3!f!1!B!2!B!1!B !2!B!3!c!1!A!2!F |
!1!E3 e e2 BA | G2 eg !3!f!4!g!5!a!3!f | !5!b!3!g!4!a!2!f !3!g!1!e !2!f!1!e | !3!d!1!B !4!f!1!B !2!A!3!B!1!F!3!B |


